src/img/icons/results-address.svg

<?xml version="1.0" encoding="UTF-8"?>
<svg width="16px" height="16px" viewBox="0 0 16 16" version="1.1" xmlns="http://www.w3.org/2000/svg" xmlns:xlink="http://www.w3.org/1999/xlink">
    <!-- Generator: Sketch 61.2 (89653) - https://sketch.com -->
    <title>search/place</title>
    <desc>Created with Sketch.</desc>
    <g id="Page-1" stroke="none" stroke-width="1" fill="none" fill-rule="evenodd">
        <g id="icon/S/Search/Place-Copy">
            <g id="icon">
                <g id="Group">
                    <rect id="Rectangle" x="0" y="0" width="16" height="16"></rect>
                    <path d="M8,0 C10.7614237,0 13,2.23857625 13,5 C13,6.84094917 11.3333333,10.5076158 8,16 L7.5125,15.1898353 C4.50416667,10.1455135 3,6.74890171 3,5 C3,2.23857625 5.23857625,0 8,0 Z M8,3 C6.8954305,3 6,3.8954305 6,5 C6,6.1045695 6.8954305,7 8,7 C9.1045695,7 10,6.1045695 10,5 C10,3.8954305 9.1045695,3 8,3 Z" id="Shape" fill="#909099"></path>
                </g>
            </g>
        </g>
    </g>
</svg>

<svg xmlns="http://www.w3.org/2000/svg" width="16" height="16" viewBox="0 0 16 16">
    <g fill="none" fill-rule="evenodd">
        <path d="M0 0H16V16H0z"/>
        <path fill="#909099" d="M8 0c2.761 0 5 2.239 5 5 0 1.84-1.667 5.508-5 11-3.333-5.492-5-9.16-5-11 0-2.761 2.239-5 5-5zm0 3c-1.105 0-2 .895-2 2s.895 2 2 2 2-.895 2-2-.895-2-2-2z"/>
    </g>
</svg>
